svgs/regular/arrow-down-small-big.svg

<svg xmlns="http://www.w3.org/2000/svg" viewBox="0 0 576 512"><!--! Font Awesome Pro 6.6.0 by @fontawesome - https://fontawesome.com License - https://fontawesome.com/license (Commercial License) Copyright 2024 Fonticons, Inc. --><path d="M143 473L47 377c-9.4-9.4-9.4-24.6 0-33.9s24.6-9.4 33.9 0l55 55L136 56c0-13.3 10.7-24 24-24s24 10.7 24 24l0 342.1 55-55c9.4-9.4 24.6-9.4 33.9 0s9.4 24.6 0 33.9l-96 96c-9.4 9.4-24.6 9.4-33.9 0zM368 144l64 0 0-64-64 0 0 64zm-48 0l0-64c0-26.5 21.5-48 48-48l64 0c26.5 0 48 21.5 48 48l0 64c0 26.5-21.5 48-48 48l-64 0c-26.5 0-48-21.5-48-48zm48 160l0 128 128 0 0-128-128 0zm-48 0c0-26.5 21.5-48 48-48l128 0c26.5 0 48 21.5 48 48l0 128c0 26.5-21.5 48-48 48l-128 0c-26.5 0-48-21.5-48-48l0-128z"/></svg>

<svg xmlns="http://www.w3.org/2000/svg" viewBox="0 0 576 512"><!--! Font Awesome Pro 6.4.0 by @fontawesome - https://fontawesome.com License - https://fontawesome.com/license (Commercial License) Copyright 2023 Fonticons, Inc. --><path d="M143 473L47 377c-9.4-9.4-9.4-24.6 0-33.9s24.6-9.4 33.9 0l55 55V56c0-13.3 10.7-24 24-24s24 10.7 24 24V398.1l55-55c9.4-9.4 24.6-9.4 33.9 0s9.4 24.6 0 33.9l-96 96c-9.4 9.4-24.6 9.4-33.9 0zM368 144h64V80H368v64zm-48 0V80c0-26.5 21.5-48 48-48h64c26.5 0 48 21.5 48 48v64c0 26.5-21.5 48-48 48H368c-26.5 0-48-21.5-48-48zm48 160V432H496V304H368zm-48 0c0-26.5 21.5-48 48-48H496c26.5 0 48 21.5 48 48V432c0 26.5-21.5 48-48 48H368c-26.5 0-48-21.5-48-48V304z"/></svg>
